!!!OTL: Gechang xingxianfa
!!!ARE: Asia, China,ÿHubei Yueyang
!! I, 494
!!!SCT: C2173
!!!YEM: Copyright 1995, estate of Helmut Schaffrath.
**kern
*ICvox
*Ivox
*M2/4
*k[]
*C:
{16e
16g
16g
16a
8dd
16a
16cc
=1
8a
4.g
=2
8a
16dd
16dd
16a
16cc
16a
16cc
=3
16g
16a
4.cc}
=4
{16a
16cc
16a
16cc
8ee
8dd
=5
16a
16cc
16a
16cc
8.a
16g
=6
16a
16cc
16a
16dd
8.cc
16dd
=7
16a
16cc
8g
4a
=8
16a
16cc
8dd
16a
16g
8a
=9
2g}
==
!!!AGN: Wuge, Sangubang
!!!ONB: ESAC (Essen Associative Code) Database: SENGANSU
!!!AMT: simple duple
!!!AIN: vox
!!!EED: Helmut Schaffrath
!!!EEV: 1.0
*-
